assets/1. 1-F/Broom/Color/Broom-color.svg

<svg width="100%" height="100%" viewBox="0 0 32 32" fill="none" xmlns="http://www.w3.org/2000/svg">
<path d="M25.6575 3.5L14.8606 22.2344" stroke="#9F6261" stroke-width="2.75" stroke-linecap="round"/>
<path d="M25.6575 3.5L14.8606 22.2344" stroke="url(#paint0_linear_18_26124)" stroke-width="2.75" stroke-linecap="round"/>
<path d="M25.6575 3.5L14.8606 22.2344" stroke="url(#paint1_radial_18_26124)" stroke-width="2.75" stroke-linecap="round"/>
<path d="M25.6575 3.5L14.8606 22.2344" stroke="url(#paint2_radial_18_26124)" stroke-width="2.75" stroke-linecap="round"/>
<g filter="url(#filter0_f_18_26124)">
<path d="M25.7331 3.89606L15.1484 22.2344" stroke="#96596B" stroke-width="0.75" stroke-linecap="round"/>
</g>
<g filter="url(#filter1_ii_18_26124)">
<path d="M9.70374 23.3281L4.56353 28.1328C3.96994 28.7343 4.33631 29.6093 5.06344 29.6093H12.5793C15.009 29.4921 16.3528 28.414 16.8485 26.6284L17.3918 24.539C17.7903 22.6093 17.1515 21.298 15.8059 20.5234C14.3732 19.6987 12.5963 19.9555 11.5201 21.2103L9.70374 23.3281Z" fill="url(#paint3_linear_18_26124)"/>
<path d="M9.70374 23.3281L4.56353 28.1328C3.96994 28.7343 4.33631 29.6093 5.06344 29.6093H12.5793C15.009 29.4921 16.3528 28.414 16.8485 26.6284L17.3918 24.539C17.7903 22.6093 17.1515 21.298 15.8059 20.5234C14.3732 19.6987 12.5963 19.9555 11.5201 21.2103L9.70374 23.3281Z" fill="url(#paint4_radial_18_26124)"/>
<path d="M9.70374 23.3281L4.56353 28.1328C3.96994 28.7343 4.33631 29.6093 5.06344 29.6093H12.5793C15.009 29.4921 16.3528 28.414 16.8485 26.6284L17.3918 24.539C17.7903 22.6093 17.1515 21.298 15.8059 20.5234C14.3732 19.6987 12.5963 19.9555 11.5201 21.2103L9.70374 23.3281Z" fill="url(#paint5_linear_18_26124)"/>
<path d="M9.70374 23.3281L4.56353 28.1328C3.96994 28.7343 4.33631 29.6093 5.06344 29.6093H12.5793C15.009 29.4921 16.3528 28.414 16.8485 26.6284L17.3918 24.539C17.7903 22.6093 17.1515 21.298 15.8059 20.5234C14.3732 19.6987 12.5963 19.9555 11.5201 21.2103L9.70374 23.3281Z" fill="url(#paint6_radial_18_26124)"/>
</g>
<path d="M11.2668 21.5469L17.3137 24.8282" stroke="url(#paint7_linear_18_26124)" stroke-width="0.6" stroke-linecap="round"/>
<path d="M11.2668 21.5469L17.3137 24.8282" stroke="url(#paint8_radial_18_26124)" stroke-width="0.6" stroke-linecap="round"/>
<path d="M10.2434 22.7734L16.9543 26.5469" stroke="url(#paint9_linear_18_26124)" stroke-width="0.6" stroke-linecap="round"/>
<path d="M10.2434 22.7734L16.9543 26.5469" stroke="url(#paint10_radial_18_26124)" stroke-width="0.6" stroke-linecap="round"/>
<rect x="14.683" y="18.6825" width="3.80279" height="1.31895" rx="0.659474" transform="rotate(30 14.683 18.6825)" fill="url(#paint11_linear_18_26124)"/>
<rect x="14.683" y="18.6825" width="3.80279" height="1.31895" rx="0.659474" transform="rotate(30 14.683 18.6825)" fill="url(#paint12_radial_18_26124)"/>
<rect x="14.683" y="18.6825" width="3.80279" height="1.31895" rx="0.659474" transform="rotate(30 14.683 18.6825)" fill="url(#paint13_radial_18_26124)"/>
<defs>
<filter id="filter0_f_18_26124" x="14.0233" y="2.771" width="12.8348" height="20.5884" filterUnits="userSpaceOnUse" color-interpolation-filters="sRGB">
<feFlood flood-opacity="0" result="BackgroundImageFix"/>
<feBlend mode="normal" in="SourceGraphic" in2="BackgroundImageFix" result="shape"/>
<feGaussianBlur stdDeviation="0.375" result="effect1_foregroundBlur_18_26124"/>
</filter>
<filter id="filter1_ii_18_26124" x="4.26733" y="19.547" width="14.2417" height="10.0623" filterUnits="userSpaceOnUse" color-interpolation-filters="sRGB">
<feFlood flood-opacity="0" result="BackgroundImageFix"/>
<feBlend mode="normal" in="SourceGraphic" in2="BackgroundImageFix" result="shape"/>
<feColorMatrix in="SourceAlpha" type="matrix" values="0 0 0 0 0 0 0 0 0 0 0 0 0 0 0 0 0 0 127 0" result="hardAlpha"/>
<feOffset dx="1"/>
<feGaussianBlur stdDeviation="0.75"/>
<feComposite in2="hardAlpha" operator="arithmetic" k2="-1" k3="1"/>
<feColorMatrix type="matrix" values="0 0 0 0 0.756863 0 0 0 0 0.517647 0 0 0 0 0.298039 0 0 0 1 0"/>
<feBlend mode="normal" in2="shape" result="effect1_innerShadow_18_26124"/>
<feColorMatrix in="SourceAlpha" type="matrix" values="0 0 0 0 0 0 0 0 0 0 0 0 0 0 0 0 0 0 127 0" result="hardAlpha"/>
<feOffset dy="-0.5"/>
<feGaussianBlur stdDeviation="0.75"/>
<feComposite in2="hardAlpha" operator="arithmetic" k2="-1" k3="1"/>
<feColorMatrix type="matrix" values="0 0 0 0 1 0 0 0 0 0.427451 0 0 0 0 0.529412 0 0 0 1 0"/>
<feBlend mode="normal" in2="effect1_innerShadow_18_26124" result="effect2_innerShadow_18_26124"/>
</filter>
<linearGradient id="paint0_linear_18_26124" x1="15.4387" y1="18.0625" x2="17.7825" y2="19.4375" gradientUnits="userSpaceOnUse">
<stop offset="0.142375" stop-color="#6E4240"/>
<stop offset="1" stop-color="#834953" stop-opacity="0"/>
</linearGradient>
<radialGradient id="paint1_radial_18_26124" cx="0" cy="0" r="1" gradientUnits="userSpaceOnUse" gradientTransform="translate(27.7956 2.0494) rotate(131.155) scale(3.24894 4.81194)">
<stop stop-color="#A57667"/>
<stop offset="1" stop-color="#A57667" stop-opacity="0"/>
</radialGradient>
<radialGradient id="paint2_radial_18_26124" cx="0" cy="0" r="1" gradientUnits="userSpaceOnUse" gradientTransform="translate(26.6564 2.98472) rotate(-23.2729) scale(1.21397 0.754272)">
<stop offset="0.0710945" stop-color="#BB8B86"/>
<stop offset="1" stop-color="#BB8B86" stop-opacity="0"/>
</radialGradient>
<linearGradient id="paint3_linear_18_26124" x1="7.43872" y1="29.0625" x2="15.8762" y2="21.25" gradientUnits="userSpaceOnUse">
<stop stop-color="#F58C43"/>
<stop offset="1" stop-color="#FDAD47"/>
</linearGradient>
<radialGradient id="paint4_radial_18_26124" cx="0" cy="0" r="1" gradientUnits="userSpaceOnUse" gradientTransform="translate(16.1575 22.3437) rotate(121.39) scale(2.15987 3.5623)">
<stop stop-color="#FFD46F"/>
<stop offset="1" stop-color="#FFD46F" stop-opacity="0"/>
</radialGradient>
<linearGradient id="paint5_linear_18_26124" x1="6.43872" y1="29.125" x2="10.6262" y2="26.75" gradientUnits="userSpaceOnUse">
<stop stop-color="#FF8655"/>
<stop offset="1" stop-color="#FF8655" stop-opacity="0"/>
</linearGradient>
<radialGradient id="paint6_radial_18_26124" cx="0" cy="0" r="1" gradientUnits="userSpaceOnUse" gradientTransform="translate(13.72 25.8125) rotate(122.3) scale(3.21647 4.10599)">
<stop stop-color="#FFA565"/>
<stop offset="1" stop-color="#FFA565" stop-opacity="0"/>
</radialGradient>
<linearGradient id="paint7_linear_18_26124" x1="15.3137" y1="24.125" x2="10.4856" y2="21.472" gradientUnits="userSpaceOnUse">
<stop stop-color="#FF1951"/>
<stop offset="0.718449" stop-color="#DC1E43"/>
<stop offset="1" stop-color="#B2424F"/>
</linearGradient>
<radialGradient id="paint8_radial_18_26124" cx="0" cy="0" r="1" gradientUnits="userSpaceOnUse" gradientTransform="translate(15.0963 23.5238) rotate(118.249) scale(0.208223 2.95101)">
<stop offset="0.242816" stop-color="#FF516D"/>
<stop offset="1" stop-color="#FF516D" stop-opacity="0"/>
</radialGradient>
<linearGradient id="paint9_linear_18_26124" x1="14.7347" y1="25.7382" x2="9.28962" y2="22.8508" gradientUnits="userSpaceOnUse">
<stop stop-color="#FF1951"/>
<stop offset="0.718449" stop-color="#DC1E43"/>
<stop offset="1" stop-color="#B2424F"/>
</linearGradient>
<radialGradient id="paint10_radial_18_26124" cx="0" cy="0" r="1" gradientUnits="userSpaceOnUse" gradientTransform="translate(14.4934 25.0469) rotate(117.408) scale(0.237608 3.30057)">
<stop offset="0.242816" stop-color="#FF516D"/>
<stop offset="1" stop-color="#FF516D" stop-opacity="0"/>
</radialGradient>
<linearGradient id="paint11_linear_18_26124" x1="16.5844" y1="18.6825" x2="16.6106" y2="19.8848" gradientUnits="userSpaceOnUse">
<stop stop-color="#AA9FB9"/>
<stop offset="1" stop-color="#B69BCC"/>
</linearGradient>
<radialGradient id="paint12_radial_18_26124" cx="0" cy="0" r="1" gradientUnits="userSpaceOnUse" gradientTransform="translate(17.7628 18.6616) rotate(164.846) scale(3.29759 2.01065)">
<stop offset="0.477916" stop-color="#9B8DAC" stop-opacity="0"/>
<stop offset="0.96585" stop-color="#7E7785"/>
</radialGradient>
<radialGradient id="paint13_radial_18_26124" cx="0" cy="0" r="1" gradientUnits="userSpaceOnUse" gradientTransform="translate(17.438 18.8491) rotate(90.3093) scale(0.650181 1.93389)">
<stop offset="0.15196" stop-color="#C3B6D4"/>
<stop offset="1" stop-color="#C3B6D4" stop-opacity="0"/>
</radialGradient>
</defs>
</svg>

<svg width="100%" height="100%" viewBox="0 0 32 32" xmlns="http://www.w3.org/2000/svg"><path stroke="#9F6261" stroke-linecap="round" stroke-width="2.75" d="M25.658 3.5 14.86 22.234"/><path stroke="url(#a)" stroke-linecap="round" stroke-width="2.75" d="M25.658 3.5 14.86 22.234"/><path stroke="url(#b)" stroke-linecap="round" stroke-width="2.75" d="M25.658 3.5 14.86 22.234"/><path stroke="url(#c)" stroke-linecap="round" stroke-width="2.75" d="M25.658 3.5 14.86 22.234"/><g filter="url(#d)"><path stroke="#96596B" stroke-linecap="round" stroke-width=".75" d="M25.733 3.896 15.148 22.234"/></g><g filter="url(#e)"><path fill="url(#f)" d="m9.704 23.328-5.14 4.805c-.594.601-.228 1.476.5 1.476h7.515c2.43-.117 3.774-1.195 4.27-2.98l.543-2.09c.398-1.93-.24-3.241-1.586-4.016-1.433-.824-3.21-.567-4.286.687z"/><path fill="url(#g)" d="m9.704 23.328-5.14 4.805c-.594.601-.228 1.476.5 1.476h7.515c2.43-.117 3.774-1.195 4.27-2.98l.543-2.09c.398-1.93-.24-3.241-1.586-4.016-1.433-.824-3.21-.567-4.286.687z"/><path fill="url(#h)" d="m9.704 23.328-5.14 4.805c-.594.601-.228 1.476.5 1.476h7.515c2.43-.117 3.774-1.195 4.27-2.98l.543-2.09c.398-1.93-.24-3.241-1.586-4.016-1.433-.824-3.21-.567-4.286.687z"/><path fill="url(#i)" d="m9.704 23.328-5.14 4.805c-.594.601-.228 1.476.5 1.476h7.515c2.43-.117 3.774-1.195 4.27-2.98l.543-2.09c.398-1.93-.24-3.241-1.586-4.016-1.433-.824-3.21-.567-4.286.687z"/></g><path stroke="url(#j)" stroke-linecap="round" stroke-width=".6" d="m11.267 21.547 6.047 3.281"/><path stroke="url(#k)" stroke-linecap="round" stroke-width=".6" d="m11.267 21.547 6.047 3.281"/><path stroke="url(#l)" stroke-linecap="round" stroke-width=".6" d="m10.243 22.773 6.711 3.774"/><path stroke="url(#m)" stroke-linecap="round" stroke-width=".6" d="m10.243 22.773 6.711 3.774"/><rect width="3.803" height="1.319" x="14.683" y="18.683" fill="url(#n)" rx=".659" transform="rotate(30 14.683 18.683)"/><rect width="3.803" height="1.319" x="14.683" y="18.683" fill="url(#o)" rx=".659" transform="rotate(30 14.683 18.683)"/><rect width="3.803" height="1.319" x="14.683" y="18.683" fill="url(#p)" rx=".659" transform="rotate(30 14.683 18.683)"/><defs><radialGradient id="b" cx="0" cy="0" r="1" gradientTransform="matrix(-2.13812 2.44623 -3.62306 -3.16673 27.796 2.05)" gradientUnits="userSpaceOnUse"><stop stop-color="#A57667"/><stop offset="1" stop-color="#A57667" stop-opacity="0"/></radialGradient><radialGradient id="c" cx="0" cy="0" r="1" gradientTransform="matrix(1.1152 -.47965 .29802 .6929 26.656 2.985)" gradientUnits="userSpaceOnUse"><stop offset=".071" stop-color="#BB8B86"/><stop offset="1" stop-color="#BB8B86" stop-opacity="0"/></radialGradient><radialGradient id="g" cx="0" cy="0" r="1" gradientTransform="matrix(-1.125 1.84376 -3.04093 -1.85546 16.157 22.344)" gradientUnits="userSpaceOnUse"><stop stop-color="#FFD46F"/><stop offset="1" stop-color="#FFD46F" stop-opacity="0"/></radialGradient><radialGradient id="i" cx="0" cy="0" r="1" gradientTransform="matrix(-1.71873 2.71876 -3.47064 -2.19405 13.72 25.813)" gradientUnits="userSpaceOnUse"><stop stop-color="#FFA565"/><stop offset="1" stop-color="#FFA565" stop-opacity="0"/></radialGradient><radialGradient id="k" cx="0" cy="0" r="1" gradientTransform="matrix(-.09855 .18342 -2.59954 -1.39673 15.096 23.524)" gradientUnits="userSpaceOnUse"><stop offset=".243" stop-color="#FF516D"/><stop offset="1" stop-color="#FF516D" stop-opacity="0"/></radialGradient><radialGradient id="m" cx="0" cy="0" r="1" gradientTransform="rotate(117.408 -.366 16.929)scale(.23761 3.30054)" gradientUnits="userSpaceOnUse"><stop offset=".243" stop-color="#FF516D"/><stop offset="1" stop-color="#FF516D" stop-opacity="0"/></radialGradient><radialGradient id="o" cx="0" cy="0" r="1" gradientTransform="rotate(164.846 7.64 10.512)scale(3.29759 2.01065)" gradientUnits="userSpaceOnUse"><stop offset=".478" stop-color="#9B8DAC" stop-opacity="0"/><stop offset=".966" stop-color="#7E7785"/></radialGradient><radialGradient id="p" cx="0" cy="0" r="1" gradientTransform="matrix(-.00351 .65017 -1.93386 -.01044 17.438 18.85)" gradientUnits="userSpaceOnUse"><stop offset=".152" stop-color="#C3B6D4"/><stop offset="1" stop-color="#C3B6D4" stop-opacity="0"/></radialGradient><linearGradient id="a" x1="15.439" x2="17.782" y1="18.063" y2="19.438" gradientUnits="userSpaceOnUse"><stop offset=".142" stop-color="#6E4240"/><stop offset="1" stop-color="#834953" stop-opacity="0"/></linearGradient><linearGradient id="f" x1="7.439" x2="15.876" y1="29.063" y2="21.25" gradientUnits="userSpaceOnUse"><stop stop-color="#F58C43"/><stop offset="1" stop-color="#FDAD47"/></linearGradient><linearGradient id="h" x1="6.439" x2="10.626" y1="29.125" y2="26.75" gradientUnits="userSpaceOnUse"><stop stop-color="#FF8655"/><stop offset="1" stop-color="#FF8655" stop-opacity="0"/></linearGradient><linearGradient id="j" x1="15.314" x2="10.486" y1="24.125" y2="21.472" gradientUnits="userSpaceOnUse"><stop stop-color="#FF1951"/><stop offset=".718" stop-color="#DC1E43"/><stop offset="1" stop-color="#B2424F"/></linearGradient><linearGradient id="l" x1="14.735" x2="9.29" y1="25.738" y2="22.851" gradientUnits="userSpaceOnUse"><stop stop-color="#FF1951"/><stop offset=".718" stop-color="#DC1E43"/><stop offset="1" stop-color="#B2424F"/></linearGradient><linearGradient id="n" x1="16.584" x2="16.611" y1="18.683" y2="19.885" gradientUnits="userSpaceOnUse"><stop stop-color="#AA9FB9"/><stop offset="1" stop-color="#B69BCC"/></linearGradient><filter id="d" width="12.835" height="20.588" x="14.023" y="2.771" color-interpolation-filters="sRGB" filterUnits="userSpaceOnUse"><feFlood flood-opacity="0" result="BackgroundImageFix"/><feBlend in="SourceGraphic" in2="BackgroundImageFix" result="shape"/><feGaussianBlur result="effect1_foregroundBlur_18_26124" stdDeviation=".375"/></filter><filter id="e" width="14.242" height="10.062" x="4.267" y="19.547" color-interpolation-filters="sRGB" filterUnits="userSpaceOnUse"><feFlood flood-opacity="0" result="BackgroundImageFix"/><feBlend in="SourceGraphic" in2="BackgroundImageFix" result="shape"/><feColorMatrix in="SourceAlpha" result="hardAlpha" values="0 0 0 0 0 0 0 0 0 0 0 0 0 0 0 0 0 0 127 0"/><feOffset dx="1"/><feGaussianBlur stdDeviation=".75"/><feComposite in2="hardAlpha" k2="-1" k3="1" operator="arithmetic"/><feColorMatrix values="0 0 0 0 0.756863 0 0 0 0 0.517647 0 0 0 0 0.298039 0 0 0 1 0"/><feBlend in2="shape" result="effect1_innerShadow_18_26124"/><feColorMatrix in="SourceAlpha" result="hardAlpha" values="0 0 0 0 0 0 0 0 0 0 0 0 0 0 0 0 0 0 127 0"/><feOffset dy="-.5"/><feGaussianBlur stdDeviation=".75"/><feComposite in2="hardAlpha" k2="-1" k3="1" operator="arithmetic"/><feColorMatrix values="0 0 0 0 1 0 0 0 0 0.427451 0 0 0 0 0.529412 0 0 0 1 0"/><feBlend in2="effect1_innerShadow_18_26124" result="effect2_innerShadow_18_26124"/></filter></defs></svg>
